!!!!SEGMENT: pl-stab--st-a--008_anonim--archaniol-gabriel.krn
!!!cenid: 15xx:363
!!!COM: Anonim
!!!COM-rismID: pe30004985
!!!CDT:
!!!CNT:
!!!OTL: Archanioł Gabriel
!!!PDT: 1586
!!!AGN: Sacred
!!!SMS-siglum: PL-STAb
!!!SMS-shelfmark: St A
!!!SMS-shelfwork: 008 W
!!!NIFC-rismSourceID:
!!!NIFC-islandoraID:
!!!URL-pdf-islandora:
!!!URL-scan: http://staniatki.studiokropka.pl/mbp/#/item/429 @EN{Scan on the Music of the Polish Benedictine Sisters Website} @PL{Skany w portalu Muzyka Benedyktynek Polskich}
!!!ONB-nifc:
!!!COM: Anonim
!!!CDT:
!!!OTL@@POL: Archanioł Gabriel
!!!TXO: Polish
!!!ODT:
!!!ARL: Opactwo św. Wojciecha, Staniątki
!!!voices: 1
!!!AIN: 1 empty
!!!key:
**kern	**text	**text	**text	**text	**text	**text	**text	**text	**text	**text
*Iempty	*	*	*	*	*	*	*	*	*	*
*I"	*	*	*	*	*	*	*	*	*	*
*	*verse[1]	*verse[2]	*verse[3]	*verse[4]	*verse[5]	*verse[6]	*verse[7]	*verse[8]	*verse[9]	*verse[10]
*clefG2	*	*	*	*	*	*	*	*	*	*
*k[b-]	*	*	*	*	*	*	*	*	*	*
*g:	*	*	*	*	*	*	*	*	*	*
=1-	=1	=1	=1	=1	=1	=1	=1	=1	=1	=1
2g	Ar-	İ-	Tӱ	Tӱś	Nie-	Daß	Ma-	Po-	O-	Rʓek-
2g	-cha-	-mi-	slo-	nad	-boӱ	mu	-ria	-cӡnieß	-to	-la
2b-	-ni-	-je	-wa	wßi-	się	i-	ӡaś	pan-	i	pan-
2b-	-ol	ieij	rӡekl	-tkie	Mar-	-miję	rӡek-	-no	Elʓ-	-na
=2-	=2	=2	=2	=2	=2	=2	=2	=2	=2	=2
1g	Gab-	Ma-	A-	in-	-ia	Je-	-la	sӱ-	-bie-	ӱam
1a	-riel	-ria	-niol	-ße	łas-	-sus	po-	-na	-ta	iest
=3-	=3	=3	=3	=3	=3	=3	=3	=3	=3	=3
1g	ӡ_nie-	od	do	iest	-kiś	ā	-tӱm	spra-	cӡio_tka	slu-
2a	-ba	wie-	nieij	blo-	do-	tęn	A-	-wą	two-	-ga
2.b-	wӱ	-ku	prӡi	-go	-stą	bę	-nio	du	-ia	pa
=4-	=4	=4	=4	=4	=4	=4	=4	=4	=4	=4
.	.	.	.	.	.	.	.	.	.	.
4cc	so-	prӡeij-	stą-	sla-	.	dӡie	.	cha	wsta-	na
1dd	-kie-	-rӡa-	-piw-	-wio-	pi-	wiel-	lo-	swię_te-	-ro-	me-
2cc	-go	-na	-ßi	-na	-la	-ki	-wi	-go	-scӡi	-go
=5-	=5	=5	=5	=5	=5	=5	=5	=5	=5	=5
1dd	pos-	iß	i	o-	Bo-	ӡwać	o-	moć	po-	niech-
2dd	-ląn	po-	we-	-na	-ga	go	-nę-	cӡie-	-cʓe-	-ʓe
2dd	bel	-ro-	-se-	tӱm	wßech-	si-	-mu	-bie	-la	mi
=6-	=6	=6	=6	=6	=6	=6	=6	=6	=6	=6
2cc	do	-dӡić	-le	po-	-moc-	-nem	Bo-	o-	iest	się
1b-	pan-	mi-	o-	-sel-	-nę-	Bo-	-ʓę-	-gar-	sӱ-	sta-
2a	-nӱ	-ja-	-nę	-stwem	-mu	-ӡim	-mu	-nie	-na	-nie
=7-	=7	=7	=7	=7	=7	=7	=7	=7	=7	=7
1b-	ӡ_ӡrӡą-	-la	pier-	be-	ies-	bę-	wdӡię-	Bo-	ӡ_Bos-	wed-
1g	-dʓe-	nie-	-weӱ	-la	-teś	-dӡie	-cӡnę-	-ga	-kieӱ	-lug
=8-	=8	=8	=8	=8	=8	=8	=8	=8	=8	=8
2b-	-ni-	-bie-	po-	prӡe-	bar-	na-	-mu	na-	ßcӡo-	slo-
!!LO:PG:g=original
1a	-ja	-skie-	-ӡdro-	-stra-	-dʓo	-rod	pos-	-wӱß-	-dro-	-wa
1g	Bo	-go	-wiw	-ßo	mi	wßel	-lo	-ße	-bli	twe
=9-	=9	=9	=9	=9	=9	=9	=9	=9	=9	=9
.	.	.	.	.	.	.	.	.	.	.
2f	ʓe-	pa-	.	na	.	.	.	.	wo-	.
1g	-go	-na	ßi	cӡo	ła	ki	wi	go	-scӡi	go
=10-	=10	=10	=10	=10	=10	=10	=10	=10	=10	=10
2dd	ta	kto-	łas-	to	po-	da	A	i	inß	od-
2dd	w_mięs-	-ri-	-kiś	są	-cӡnieß	mu	ia	to	ma	ßedl
2dd	-cᴣie-	-bӱ	Bo-	ӡa	wtwӱm	pan	hoß	cӡo	ßos-	A-
2dd	ӡi-	mo-	-ӡej	slo-	ӡi-	Bog	to	się	-tӱ	-niol
=11-	=11	=11	=11	=11	=11	=11	=11	=11	=11	=11
1dd	-dow-	-cӡą	pe-	-wa	-wo-	sto_lecӡ	bę-	sӡcӡie-	mie-	po-
1dd	-skim	swą	-lna	iję-	-cӡie	Da-	-dӡie	-bie	-ʃiącӡ	-tӱm
=12-	=12	=12	=12	=12	=12	=12	=12	=12	=12	=12
1g	Na-	mocӡ	i	-la	po-	-wi-	gdӱ	na-	kto-	pan-
2a	-ӡa-	cӡar-	pąn	mӱ-	-ro-	-da	ija	-ro-	-ra	-na
2.b-	-reth	-to	iest	-slić	-dӡiß	oij	mę	-dßi	iest	teӡ
=13-	=13	=13	=13	=13	=13	=13	=13	=13	=13	=13
.	.	.	.	.	.	.	.	.	.	.
4cc	mieß-	wską	prӡi	o	.	cӡa	ӡa	swię-	nie-	pow-
1dd	-ka-	ʓgla-	to-	.	sӱ-	ie-	nie-	-te-	-plo-	-ʃta-
2cc	-la	-dӡil	-bie	tӱm	-na	-go	-ӡnam	-go	-dna	-la
=14-	=14	=14	=14	=14	=14	=14	=14	=14	=14	=14
1dd	a	a	kto-	wi-	nie-	dom	od-	wßi-	bo	ʓa
2dd	İo-	wӱ-	-rӱ	-dӡącӡ	-be-	Ja-	-po-	-te-	u	tak
2dd	-sep-	-brā-	cӡię	bo-	-lacӡ	-ko-	-wie-	-ӡi	Bo-	wiel-
=15-	=15	=15	=15	=15	=15	=15	=15	=15	=15	=15
2cc	-ʓa	-ne	ӡ_ła-	-ia-	od	-bow	-dӡial	chwa-	-ga	-kie
1b-	mę-	Bo-	-ski	-ӡli-	wie-	wie-	A-	-lić	wßel-	da-
2a	-ӡa	-ʓe	sweӱ	-wą	-ku	-cӡnie	-niol	bę-	-ka	-rӱ
=16-	=16	=16	=16	=16	=16	=16	=16	=16	=16	=16
1b-	po-	do	ra-	rӡekl	ta-	bę-	pąn	-dą	mo-	Bo-
1g	-slu-	nie-	-cӡel	ieӱ	-ko-	-dӡie	Bog	jak	-wa	-gu
=17-	=17	=17	=17	=17	=17	=17	=17	=17	=17	=17
2b-	-bio-	-ba	ob-	A-	-wa	mӱ-	to	si-	iest	chwa-
1a	-ne-	wpro-	-racӡ	-niol	no-	-al	spra-	-na	po-	-lę
1g	-go	-wa	so-	po	-wi	ka	-wi	Bo	-dob	da
=18-	=18	=18	=18	=18	=18	=18	=18	=18	=18	=18
.	.	.	.	.	.	.	.	.	.	.
2f	mi-	.	.	.	.	da	.	ʓe-	.	la.
!!LO:N:vis=00
1.g/;	-ja_la	dӡil	-bӱe	tӱm.	na	-te	sąm	-go	na	A
==	==	==	==	==	==	==	==	==	==	==
*-	*-	*-	*-	*-	*-	*-	*-	*-	*-	*-
!!!EFL:
!!!YEM: Creative Commons CC/BY/NC/SA 4.0
!!!ENC: Anna Matuszewska
!!!END: 2020-02-04
!!!EED: Marcin Konik
!!!EEV:
!!!ONB: Encoded in vim by Marcin Konik
!!!CharacterEncoding: utf-8
!!!RDF**kern: l=long note in original notation
!!!RDF**kern: i=editorial accidental
!!muse2ps: z14jc180F
!!!pag: pp. 15v-16r
